X:91
T: SEI NUR STILL HAST LANG GESCHWIEGEN
N: E0697A
O: Europa, Mitteleuropa, Deutschland, Thueringen
R: Liebes - Lied, Leid, Klage
M: 4/4
L: 1/8
K: D
DEFG | A3ABcdB | BAAG
F3G | A3ABAGF | F2E2
DEFG | A3ABcdB | BAAG
F3G | A3ABAGF | F2E2
A3F | G3EFAF2 | E2z2
FEFG | AGF2
E2FF | GBAGF2E2 | D2z2
A3F | G3EFAF2 | E2z2
FEFG | AGF2
E2FF | GBAGF2E2 | D2z2

